X: 1875
T: Arnie's
R: jig
M: 6/8
K: Edorian
|:EBB EBB|BdB AGF|Adc dAF|GFG BAG|
EBB EBB|BdB AGF|GFG AGA|1 BGE E2 B:|2 BGE EGB||
|:eBe fdf|geg fed|Adc dAF|dcd fed|
eBe fdf|geg a2 f|edB AGA|1 BGE EGB:|2 BGE E3||

